X:1
T:Klezmer Kerry Polka #1   [Dm]
T:Klezmer Kerry Polka #1   [Dm]
T:Rich Sobel
C:Rich Sobel
L:1/8
M:2/4
K:Dmin
V:1 treble 
V:1
 de |"Dm" f/e/d/f/"A" e/d/^c/e/ |"Dm" dA de | f/e/d/f/"A" e/d/^c/e/ |"Dm" d2 de | %5
"Dm" f/e/d/f/"A" e/d/^c/e/ |"Dm" dA"Gm" B/A/G |"Dm" A/G/F"A7" G/F/E |"Dm" D2 ::"D7" d2 | %10
"Gm" [Bg]2 [Bg]>a |{a} bg g2 |"Dm" f/e/f/g/ af | d3 f |"A" ea ea | ea a2 |1"Dm" d/^c/d/e/ fg | %17
 af :|2"^(Gm)" b/a/g"A7" fe |"Dm" d2 |] %20

